X:1
T:Title
%%score ( 1 2 ) { 3 | 4 }
L:1/8
Q:1/4=110
M:4/4
K:G
V:1 treble nm="Grand Piano, Staff 1"
V:2 treble 
V:3 bass nm="Choir Pad, Pekin, SM"
V:4 bass 
V:1
 Bc [Dd]2 G2 [EA]2 | [DF]2 [DG]6 | [B,G]2 [DA]2 [DB]2 [Ec]2 | [Dc]2 [DB]6 | %4
w: By~Arr~J.~E.~Kingsley,~1847,~from~German~chorale~ * * * *||||
 [DB]2 [DA]2 [Dd]2 [DB]2 | [Ge]2 [Ed]2 [E^c]2 [Fd]2 | [Gd]2 [Ge]2 [GA]2 [GB]2 | [FA]2 G6- | %8
w: ||||
 G2 z2 z4 |] %9
w: |
V:2
 D2 z2 z4 | x8 | x8 | x8 | x8 | x8 | x8 | x8 | x8 |] %9
V:3
 G,A, B,2 D2 C2 | A,2 B,6 | G,2 F,2 G,2 G,2 | F,2 G,6 | G,2 F,2 A,2 G,2 | B,2 A,2 A,2 A,2 | %6
 B,2[K:treble] C2 E2 D2 | D2 B,6- | B,2 z2 z4 |] %9
V:4
 z2 G,2 B,,2 C,2 | D,2 G,,6 | E,2 D,2 B,,2 A,,2 | D,2 G,,6 | z2 D,2 F,2 z2 | E,2 z2 A,,2 D,2 | %6
 G,2 C,2 ^C,2 D,2 | D,2 G,,6- | G,,2 z2 z4 |] %9

